X:1
T:In meinem jungen Hertzen
T:Gemignani Capilupi
T:Source : Canzonette mit 3 Stimmen/ H.Vecchi und G.Capilupi---Nürnberg---P.Kauffmann---1606. Editor : André Vierendeels (24/02/17).
T:Notes : Original clefs : G2, G2, F3 Editorial accidentals above the staff Text Middle German by Valentin Hauszmann German Contrafactum of "L'amara" 1597
T:In meinem jungen Hertzen
T:©
T:©
T:©
T:©
C:Gemignani Capilupi
Z:©
%%score [ 1 2 3 ]
L:1/8
Q:1/4=100
M:4/4
K:F
V:1 treble nm="Soprano 1" snm="S 1"
V:2 treble nm="Soprano 2" snm="S 2"
V:3 treble-8 nm="Tenor" snm="T"
V:1
"^1)" z4 d4 | d6 d2 | d4 c4 | B8 | A2 a2 a2 g2 | f2 f2 f2 e2 | d4 z2 d2 | d2 c2 B3 A | G4 A4 | %9
w: In|mei- nem|jun- gen|Her|tzen, bald bisz in|Todt, leid ich jetzt|noth, leid|ich jetzt noth, _|_ mit|
w: In|mei- nem|an- ge-|sich-|te, du all- zeit|schwebst, doch bey mir|lebst, mi|nich- te. drumb ich|mich fast|
 B4 c4 |[M:2/4] d4 ::[M:4/4] z2 A2 d3 d | d2 c2 B4 | A4 d2 dd | d2 d2 g2 f2 | _e2 d2 c4 | %16
w: schmer- *|zen,|dasz musz ich|mich be- schwe-|ren, die brunst der|Lie- be will mich|gar ver- zeh-|
w: kren- *|cke,|und dir mit|man- ken tief-|fe, seuf- fzen wen-|vke, dasz ist mir|dann ein lei-|
 d4 z2 f2 | f2 _e2 d2 c2 | A4 A2 d2- | de f2 B4 | z2 B3 c d2 | G4 z2 g2- | gf _e2 d2 f2- | %23
w: ren, wie|sehr ich thu em-|pfin- den, kan|_ ich mich doch,|kan ich mich|doch, kan|_ ich mich doch, kan|
w: den, dasz|ist von dir so|lang musz sein|_ ge- schei- den,|so lang musz|sein, so|_ lang musz sein, so|
 fe d2 c2 _e2- | ed c2 B2 G2 | B2 c2 d2 B2 | A4 !fermata!G4 :| %27
w: _ ich mich doch, kan|_ ich mich doch ausz|der ge- fahr nicht|fin- den.|
w: _ lang musz sein, so|_ lans musz sein, so|lang musz sein ge-|schei- den.|
V:2
"^1)""^2)" A8 | B6 B2 | B4 A4 | G8 |"^#""^-natural" F2 f2 f2 e2 | d4 z4 | z2 f2 f3 e | d8- | %8
w: In|mei- nem|jun- gen|Her-|tzen, bald bisz in|noth,|leid ich jezt|noth|
w: Mit|mei- nen|bei- den|füs-|sen, thut mich so|lang,|zu dir kein|gang|
 d4 d4 | G8 |[M:2/4] ^F4 ::[M:4/4] z2 F2 B3 B | B2 A2 G4 | ^F4 B2 BB | B2 A2 B3 F | G2 B2 A4 | %16
w: _ mit|schmer-|zen,|dasz musz ich|mich be- schwe-|ren, die brunst der|Lie- be will mich|gar ver- zeh-|
w: _ ver-|dries-|sen,|ich komm offt|un- ge bet-|ten, hab auch von|dei- nent wegn vil|Gsuch zer- tret-|
 B2 d2 d4- | d2 c2 A2 G2 |"^-natural" ^F3 G AF B2 | A4 G2 g2- | gf _e2 d2 B2- | Bc d2 G4 | %22
w: ren, wie sehr|_ ich thu em-|pfin- * * * *|* den, kan|_ ich mich doch, kan|_ ich mich doch,|
w: ten, wenn ich|_ bin drausz, du|drin- * * * *|* nen,, denck|_ es doch selbst, denck|_ es doch selbst,|
 z2 B3 c d2 | A2 A3 B c2 | G2 G3 A B2 | G2 A2 B2 G2 | ^F4 !fermata!G4 :| %27
w: kan ich mich|doch, kan ich mich|doch ausz der ge-|gahr nicht fin- *|* den.|
w: denck es doch|selbst, kan es doch|selbst, es bringt mich|bald von sin- *|* nen.|
V:3
"^3)""^1)" d8 | B6 B2 | B4 F4 | G8 | D8 | z2 d2 d2 c2 | B4 z2 B2 | B2 A2 G4- | G4 F4 | _E8 | %10
w: In|mei- nem|jun- gen|Her-|tzen,|bald bisz in|Noth, leid|ich jetzt noth|_ mit|schmer-|
[M:2/4] D4 ::[M:4/4] z2 d2 B3 B | B2 c2 d4 | d4 G2 GG | G2 F2 _E2 D2 | C2 B,2 F4 | B,2 B2 B4- | %17
w: zen,|dasz musz ich|mich be- schwe-|ren, die brunst der|Lie- be will mich|gar ver- zeh-|ren, wie sehr|
 B2 c2 d2 _e2 | d8 | d4 G4 | G2 G2 G4- | G2 F2 _E4- | E2 DC B,3 C | D3 E F2 C2 | CD_EF G4 | %25
w: _ ich thu em-|pfin-|den, kan|ich mich doch|_ ausa der|_ _ _ _ _|* * * ge-|fahr _ _ _ _|
 _E4 D4- | D4 !fermata!G4 :| %27
w: nicht fin|_ den.|

